; generated by Slic3r 1.3.0 on 2019-09-14 at 23:48:07

; external perimeters extrusion width = 0.55mm (2.78mm^3/s)
; perimeters extrusion width = 0.58mm (5.89mm^3/s)
; infill extrusion width = 0.58mm (11.78mm^3/s)
; solid infill extrusion width = 0.58mm (3.93mm^3/s)
; top infill extrusion width = 0.58mm (2.95mm^3/s)

M107
M104 S205 ; set temperature
G28 ; home all axes
G1 Z5 F5000 ; lift nozzle

; Filament gcode

M109 S205 ; set temperature and wait for it to be reached
G21 ; set units to millimeters
G90 ; use absolute coordinates
M82 ; use absolute distances for extrusion
G92 E0
G1 Z0.350 F7800.000
G1 E-1.00000 F2400.00000
G92 E0
G1 X82.707 Y93.477 F7800.000
G1 E1.00000 F2400.00000
G1 F1800
G1 X84.459 Y91.998 E1.07096
G1 X86.611 Y91.205 E1.14192
G1 X87.791 Y91.099 E1.17858
G1 X97.791 Y91.099 E1.48799
G1 X100.050 Y91.496 E1.55895
G1 X102.038 Y92.639 E1.62991
G1 X103.517 Y94.392 E1.70088
G1 X104.310 Y96.544 E1.77184
G1 X104.416 Y97.724 E1.80849
G1 X104.416 Y107.724 E2.11790
G1 X104.019 Y109.983 E2.18886
G1 X102.876 Y111.971 E2.25983
G1 X101.123 Y113.450 E2.33079
G1 X98.971 Y114.243 E2.40175
G1 X97.791 Y114.349 E2.43840
G1 X87.791 Y114.349 E2.74782
G1 X85.532 Y113.952 E2.81878
G1 X83.544 Y112.808 E2.88974
G1 X82.065 Y111.056 E2.96070
G1 X81.272 Y108.904 E3.03167
G1 X81.166 Y107.724 E3.06832
G1 X81.166 Y97.724 E3.37773
G1 X81.563 Y95.465 E3.44869
G1 X82.669 Y93.542 E3.51733
G1 E2.51733 F2400.00000
G92 E0
G1 X96.191 Y106.124 F7800.000
G1 E1.00000 F2400.00000
G1 F1800
G1 X89.391 Y106.124 E1.21041
G1 X89.391 Y99.324 E1.42083
G1 X96.191 Y99.324 E1.63124
G1 X96.191 Y106.049 E1.83934
G1 X96.816 Y106.749 F7800.000
G1 F1800
G1 X88.766 Y106.749 E2.08842
G1 X88.766 Y98.699 E2.33751
G1 X96.816 Y98.699 E2.58659
G1 X96.816 Y106.674 E2.83336
G1 X97.441 Y107.374 F7800.000
G1 F1800
G1 X88.141 Y107.374 E3.12111
G1 X88.141 Y98.074 E3.40886
G1 X97.441 Y98.074 E3.69662
G1 X97.441 Y107.299 E3.98205
G1 X96.958 Y107.244 F7800.000
G1 E2.98205 F2400.00000
G92 E0
G1 X95.323 Y105.742 F7800.000
G1 E1.00000 F2400.00000
G1 F1800
G1 X95.810 Y105.256 E1.02227
G1 X95.810 Y104.331 E1.05223
G1 X94.398 Y105.742 E1.11688
G1 X93.473 Y105.742 E1.14684
G1 X95.810 Y103.406 E1.25386
G1 X95.810 Y102.481 E1.28383
G1 X92.548 Y105.742 E1.43322
G1 X91.623 Y105.742 E1.46318
G1 X95.810 Y101.556 E1.65495
G1 X95.810 Y100.630 E1.68492
G1 X90.698 Y105.742 E1.91906
G1 X89.773 Y105.742 E1.94902
G1 X95.810 Y99.705 E2.22554
G1 X94.884 Y99.705 E2.25551
G1 X89.773 Y104.817 E2.48965
G1 X89.773 Y103.892 E2.51961
G1 X93.959 Y99.705 E2.71138
G1 X93.034 Y99.705 E2.74135
G1 X89.773 Y102.967 E2.89074
G1 X89.773 Y102.042 E2.92071
G1 X92.109 Y99.705 E3.02773
G1 X91.184 Y99.705 E3.05769
G1 X89.773 Y101.117 E3.12234
G1 X89.773 Y100.192 E3.15230
G1 X90.259 Y99.705 E3.17457
M104 S200 ; set temperature
G1 Z0.750 F7800.000
G1 X96.548 Y106.480 F7800.000
G1 F900
G1 X89.035 Y106.480 E3.38327
G1 X89.035 Y98.967 E3.59197
G1 X96.548 Y98.967 E3.80067
G1 X96.548 Y106.405 E4.00729
G1 X97.039 Y106.971 F7800.000
G1 F900
G1 X88.544 Y106.971 E4.24326
G1 X88.544 Y98.476 E4.47923
G1 X97.039 Y98.476 E4.71520
G1 X97.039 Y106.896 E4.94909
G1 X97.516 Y107.449 F7800.000
G1 F900
G1 X88.066 Y107.449 E5.19731
G1 X88.066 Y97.999 E5.44552
G1 X97.516 Y97.999 E5.69373
G1 X97.516 Y107.374 E5.93998
G1 X97.033 Y107.319 F7800.000
G1 X96.248 Y99.649 F7800.000
G1 F1200
G1 X95.866 Y99.267 E5.95566
G1 X95.140 Y99.267 E5.97674
G1 X96.248 Y100.375 E6.02222
G1 X96.248 Y101.100 E6.04330
G1 X94.414 Y99.267 E6.11859
G1 X93.689 Y99.267 E6.13966
G1 X96.248 Y101.826 E6.24475
G1 X96.248 Y102.552 E6.26583
G1 X92.963 Y99.267 E6.40072
G1 X92.237 Y99.267 E6.42180
G1 X96.248 Y103.278 E6.58649
G1 X96.248 Y104.003 E6.60757
G1 X91.512 Y99.267 E6.80207
G1 X90.786 Y99.267 E6.82314
G1 X96.248 Y104.729 E7.04744
G1 X96.248 Y105.455 E7.06852
G1 X90.060 Y99.267 E7.32262
G1 X89.334 Y99.267 E7.34369
G1 X96.248 Y106.180 E7.62760
G1 X95.522 Y106.180 E7.64868
G1 X89.334 Y99.993 E7.90278
G1 X89.334 Y100.719 E7.92385
G1 X94.796 Y106.180 E8.14816
G1 X94.071 Y106.180 E8.16923
G1 X89.334 Y101.444 E8.36373
G1 X89.334 Y102.170 E8.38480
G1 X93.345 Y106.180 E8.54950
G1 X92.619 Y106.180 E8.57058
G1 X89.334 Y102.896 E8.70547
G1 X89.334 Y103.621 E8.72654
G1 X91.894 Y106.180 E8.83164
G1 X91.168 Y106.180 E8.85271
G1 X89.334 Y104.347 E8.92800
G1 X89.334 Y105.073 E8.94908
G1 X90.442 Y106.180 E8.99456
G1 X89.716 Y106.180 E9.01564
G1 X89.334 Y105.798 E9.03132
G1 Z1.150 F7800.000
G1 X96.548 Y106.480 F7800.000
G1 F900
G1 X89.035 Y106.480 E9.24002
G1 X89.035 Y98.967 E9.44872
G1 X96.548 Y98.967 E9.65742
G1 X96.548 Y106.405 E9.86404
G1 X97.039 Y106.971 F7800.000
G1 F900
G1 X88.544 Y106.971 E10.10001
G1 X88.544 Y98.476 E10.33598
G1 X97.039 Y98.476 E10.57196
G1 X97.039 Y106.896 E10.80584
G1 X97.516 Y107.449 F7800.000
G1 F900
G1 X88.066 Y107.449 E11.05406
G1 X88.066 Y97.999 E11.30227
G1 X97.516 Y97.999 E11.55049
G1 X97.516 Y107.374 E11.79673
G1 X97.033 Y107.319 F7800.000
G1 X95.866 Y106.180 F7800.000
G1 F1200
G1 X96.248 Y105.798 E11.81242
G1 X96.248 Y105.073 E11.83349
G1 X95.140 Y106.180 E11.87898
G1 X94.414 Y106.180 E11.90005
G1 X96.248 Y104.347 E11.97534
G1 X96.248 Y103.621 E11.99641
G1 X93.689 Y106.180 E12.10151
G1 X92.963 Y106.180 E12.12258
G1 X96.248 Y102.896 E12.25748
G1 X96.248 Y102.170 E12.27855
G1 X92.237 Y106.180 E12.44325
G1 X91.512 Y106.180 E12.46432
G1 X96.248 Y101.444 E12.65882
G1 X96.248 Y100.719 E12.67989
G1 X90.786 Y106.180 E12.90420
G1 X90.060 Y106.180 E12.92527
G1 X96.248 Y99.993 E13.17937
G1 X96.248 Y99.267 E13.20045
G1 X89.334 Y106.180 E13.48435
G1 X89.334 Y105.455 E13.50543
G1 X95.522 Y99.267 E13.75953
G1 X94.796 Y99.267 E13.78061
G1 X89.334 Y104.729 E14.00491
G1 X89.334 Y104.003 E14.02598
G1 X94.071 Y99.267 E14.22048
G1 X93.345 Y99.267 E14.24156
G1 X89.334 Y103.278 E14.40625
G1 X89.334 Y102.552 E14.42733
G1 X92.619 Y99.267 E14.56222
G1 X91.894 Y99.267 E14.58330
G1 X89.334 Y101.826 E14.68839
G1 X89.334 Y101.100 E14.70946
G1 X91.168 Y99.267 E14.78475
G1 X90.442 Y99.267 E14.80583
G1 X89.334 Y100.375 E14.85132
G1 X89.334 Y99.649 E14.87239
G1 X89.716 Y99.267 E14.88807
M106 S232.05
G1 Z1.550 F7800.000
G1 X96.548 Y106.480 F7800.000
G1 F900
G1 X89.035 Y106.480 E15.09678
G1 X89.035 Y98.967 E15.30548
G1 X96.548 Y98.967 E15.51418
G1 X96.548 Y106.405 E15.72079
G1 X97.039 Y106.971 F7800.000
G1 F900
G1 X88.544 Y106.971 E15.95677
G1 X88.544 Y98.476 E16.19274
G1 X97.039 Y98.476 E16.42871
G1 X97.039 Y106.896 E16.66260
G1 X97.516 Y107.449 F7800.000
G1 F900
G1 X88.066 Y107.449 E16.91081
G1 X88.066 Y97.999 E17.15902
G1 X97.516 Y97.999 E17.40724
G1 X97.516 Y107.374 E17.65348
G1 X97.033 Y107.319 F7800.000
G1 X96.248 Y99.649 F7800.000
G1 F1200
G1 X95.866 Y99.267 E17.66917
G1 X95.140 Y99.267 E17.69024
G1 X96.248 Y100.375 E17.73573
G1 X96.248 Y101.100 E17.75680
G1 X94.414 Y99.267 E17.83209
G1 X93.689 Y99.267 E17.85316
G1 X96.248 Y101.826 E17.95826
G1 X96.248 Y102.552 E17.97933
G1 X92.963 Y99.267 E18.11422
G1 X92.237 Y99.267 E18.13530
G1 X96.248 Y103.278 E18.29999
G1 X96.248 Y104.003 E18.32107
G1 X91.512 Y99.267 E18.51557
G1 X90.786 Y99.267 E18.53664
G1 X96.248 Y104.729 E18.76094
G1 X96.248 Y105.455 E18.78201
G1 X90.060 Y99.267 E19.03612
G1 X89.335 Y99.267 E19.05719
G1 X96.248 Y106.180 E19.34109
G1 X95.522 Y106.180 E19.36217
G1 X89.335 Y99.993 E19.61627
G1 X89.335 Y100.719 E19.63734
G1 X94.796 Y106.180 E19.86165
G1 X94.071 Y106.180 E19.88272
G1 X89.335 Y101.444 E20.07722
G1 X89.335 Y102.170 E20.09829
G1 X93.345 Y106.180 E20.26299
G1 X92.619 Y106.180 E20.28406
G1 X89.335 Y102.896 E20.41896
G1 X89.335 Y103.621 E20.44003
G1 X91.894 Y106.180 E20.54512
G1 X91.168 Y106.180 E20.56620
G1 X89.335 Y104.347 E20.64149
G1 X89.335 Y105.073 E20.66256
G1 X90.442 Y106.180 E20.70805
G1 X89.716 Y106.180 E20.72912
G1 X89.335 Y105.798 E20.74481
G1 Z1.950 F7800.000
G1 X96.548 Y106.480 F7800.000
G1 F900
G1 X89.035 Y106.480 E20.95351
G1 X89.035 Y98.967 E21.16221
G1 X96.548 Y98.967 E21.37091
G1 X96.548 Y106.405 E21.57753
G1 X97.039 Y106.971 F7800.000
G1 F900
G1 X88.544 Y106.971 E21.81350
G1 X88.544 Y98.476 E22.04947
G1 X97.039 Y98.476 E22.28544
G1 X97.039 Y106.896 E22.51933
G1 X97.516 Y107.449 F7800.000
G1 F900
G1 X88.066 Y107.449 E22.76754
G1 X88.066 Y97.999 E23.01576
G1 X97.516 Y97.999 E23.26397
G1 X97.516 Y107.374 E23.51022
G1 X97.033 Y107.319 F7800.000
G1 X95.866 Y106.180 F7800.000
G1 F1200
G1 X96.248 Y105.798 E23.52590
G1 X96.248 Y105.073 E23.54697
G1 X95.140 Y106.180 E23.59246
G1 X94.414 Y106.180 E23.61354
G1 X96.248 Y104.347 E23.68883
G1 X96.248 Y103.621 E23.70990
G1 X93.689 Y106.180 E23.81499
G1 X92.963 Y106.180 E23.83606
G1 X96.248 Y102.896 E23.97096
G1 X96.248 Y102.170 E23.99203
G1 X92.237 Y106.180 E24.15673
G1 X91.512 Y106.180 E24.17780
G1 X96.248 Y101.444 E24.37230
G1 X96.248 Y100.719 E24.39337
G1 X90.786 Y106.180 E24.61767
G1 X90.060 Y106.180 E24.63875
G1 X96.248 Y99.993 E24.89285
G1 X96.248 Y99.267 E24.91392
G1 X89.335 Y106.180 E25.19783
G1 X89.335 Y105.455 E25.21890
G1 X95.522 Y99.267 E25.47300
G1 X94.796 Y99.267 E25.49408
G1 X89.335 Y104.729 E25.71838
G1 X89.335 Y104.003 E25.73945
G1 X94.071 Y99.267 E25.93395
G1 X93.345 Y99.267 E25.95503
G1 X89.335 Y103.278 E26.11972
G1 X89.335 Y102.552 E26.14080
G1 X92.619 Y99.267 E26.27569
G1 X91.894 Y99.267 E26.29676
G1 X89.335 Y101.826 E26.40186
G1 X89.335 Y101.101 E26.42293
G1 X91.168 Y99.267 E26.49822
G1 X90.442 Y99.267 E26.51929
G1 X89.335 Y100.375 E26.56478
G1 X89.335 Y99.649 E26.58586
G1 X89.716 Y99.267 E26.60154
G1 Z2.350 F7800.000
G1 X95.575 Y104.218 F7800.000
G1 F900
G1 X96.548 Y104.219 E26.62858
G1 X96.548 Y106.480 E26.69140
G1 X89.035 Y106.480 E26.90010
G1 X89.035 Y99.913 E27.08252
G1 X95.996 Y99.913 E27.27590
G1 X95.997 Y98.967 E27.30217
G1 X96.548 Y98.967 E27.31749
G1 X96.548 Y100.892 E27.37094
G1 X95.576 Y100.891 E27.39793
G1 X95.575 Y104.143 E27.48827
G1 X96.066 Y103.728 F7800.000
G1 F900
G1 X97.039 Y103.728 E27.51530
G1 X97.039 Y106.971 E27.60539
G1 X88.544 Y106.971 E27.84136
G1 X88.544 Y98.476 E28.07733
G1 X89.731 Y98.476 E28.11031
G1 X89.731 Y99.422 E28.13659
G1 X92.054 Y99.422 E28.20111
G1 X92.054 Y98.476 E28.22739
G1 X93.117 Y98.476 E28.25693
G1 X93.117 Y99.422 E28.28320
G1 X95.505 Y99.422 E28.34955
G1 X95.506 Y98.476 E28.37583
G1 X97.039 Y98.476 E28.41841
G1 X97.039 Y101.383 E28.49914
G1 X96.067 Y101.382 E28.52614
G1 X96.066 Y103.653 E28.58920
G1 X96.543 Y103.250 F7800.000
G1 F900
G1 X97.516 Y103.251 E28.61476
G1 X97.516 Y107.449 E28.72502
G1 X88.066 Y107.449 E28.97323
G1 X88.066 Y97.999 E29.22145
G1 X90.208 Y97.999 E29.27771
G1 X90.209 Y98.945 E29.30256
G1 X91.577 Y98.945 E29.33849
G1 X91.576 Y97.999 E29.36333
G1 X93.595 Y97.999 E29.41636
G1 X93.595 Y98.945 E29.44121
G1 X95.028 Y98.945 E29.47886
G1 X95.029 Y97.999 E29.50371
G1 X97.516 Y97.999 E29.56905
G1 X97.516 Y101.860 E29.67048
G1 X96.544 Y101.860 E29.69601
G1 X96.543 Y103.175 E29.73056
G1 X96.442 Y103.740 F7800.000
G1 X96.248 Y105.049 F7800.000
G1 F1200
G1 X95.717 Y104.518 E29.75149
G1 X95.020 Y104.518 E29.77091
G1 X96.248 Y105.746 E29.81931
G1 X96.248 Y106.180 E29.83142
G1 X95.986 Y106.180 E29.83873
G1 X95.276 Y100.595 F7800.000
G1 F1200
G1 X94.894 Y100.213 E29.85378
G1 X94.198 Y100.213 E29.87320
G1 X95.276 Y101.291 E29.91570
G1 X95.276 Y101.988 E29.93511
G1 X93.501 Y100.213 E30.00506
G1 X92.805 Y100.213 E30.02447
G1 X95.275 Y102.684 E30.12186
G1 X95.275 Y103.380 E30.14127
G1 X92.108 Y100.213 E30.26611
G1 X91.411 Y100.213 E30.28552
G1 X95.275 Y104.076 E30.43781
G1 X95.274 Y104.773 E30.45722
G1 X90.715 Y100.213 E30.63695
G1 X90.018 Y100.213 E30.65636
G1 X95.986 Y106.180 E30.89159
G1 X95.289 Y106.180 E30.91100
G1 X89.335 Y100.226 E31.14572
G1 X89.335 Y100.922 E31.16514
G1 X94.593 Y106.180 E31.37240
G1 X93.896 Y106.180 E31.39181
G1 X89.335 Y101.619 E31.57162
G1 X89.335 Y102.316 E31.59103
G1 X93.199 Y106.180 E31.74338
G1 X92.503 Y106.180 E31.76280
G1 X89.335 Y103.012 E31.88768
G1 X89.335 Y103.709 E31.90710
G1 X91.806 Y106.180 E32.00453
G1 X91.110 Y106.180 E32.02395
G1 X89.335 Y104.405 E32.09392
G1 X89.335 Y105.102 E32.11333
G1 X90.413 Y106.180 E32.15585
G1 X89.716 Y106.180 E32.17526
G1 X89.335 Y105.798 E32.19032
G1 Z2.750 F7800.000
G1 X95.575 Y104.214 F7800.000
G1 F900
G1 X96.548 Y104.214 E32.21734
G1 X96.548 Y106.480 E32.28028
G1 X89.035 Y106.480 E32.48898
G1 X89.035 Y98.967 E32.69768
G1 X89.462 Y98.967 E32.70957
G1 X89.463 Y99.913 E32.73585
G1 X95.743 Y99.913 E32.91030
G1 X95.744 Y98.967 E32.93659
G1 X96.548 Y98.967 E32.95893
G1 X96.548 Y100.887 E33.01226
G1 X95.577 Y100.887 E33.03924
G1 X95.575 Y104.139 E33.12958
G1 X96.066 Y103.723 F7800.000
G1 F900
G1 X97.039 Y103.724 E33.15659
G1 X97.039 Y106.971 E33.24679
G1 X88.544 Y106.971 E33.48276
G1 X88.544 Y98.476 E33.71874
G1 X89.953 Y98.476 E33.75789
G1 X89.953 Y99.423 E33.78417
G1 X92.291 Y99.423 E33.84911
G1 X92.291 Y98.476 E33.87539
G1 X92.874 Y98.476 E33.89158
G1 X92.873 Y99.423 E33.91787
G1 X95.253 Y99.423 E33.98396
G1 X95.253 Y98.476 E34.01025
G1 X97.039 Y98.476 E34.05985
G1 X97.039 Y101.378 E34.14046
G1 X96.067 Y101.378 E34.16744
G1 X96.066 Y103.648 E34.23051
G1 X96.544 Y103.246 F7800.000
G1 F900
G1 X97.516 Y103.246 E34.25604
G1 X97.516 Y107.449 E34.36642
G1 X88.066 Y107.449 E34.61464
G1 X88.066 Y97.999 E34.86285
G1 X90.430 Y97.999 E34.92495
G1 X90.431 Y98.945 E34.94980
G1 X91.814 Y98.945 E34.98612
G1 X91.813 Y97.999 E35.01098
G1 X93.351 Y97.999 E35.05138
G1 X93.351 Y98.945 E35.07624
G1 X94.775 Y98.945 E35.11365
G1 X94.776 Y97.999 E35.13850
G1 X97.516 Y97.999 E35.21048
G1 X97.516 Y101.856 E35.31180
G1 X96.545 Y101.856 E35.33732
G1 X96.544 Y103.171 E35.37187
G1 X96.443 Y103.736 F7800.000
G1 X96.078 Y100.336 F7800.000
G1 F1200
G1 X96.056 Y100.395 E35.37332
G1 X95.331 Y100.400 E35.38999
G1 X96.078 Y100.336 F7800.000
G1 F1200
G1 X96.123 Y100.218 E35.39226
G1 F1200
G1 X96.145 Y100.159 E35.39308
G1 X96.146 Y99.213 E35.40529
G1 X92.582 Y99.668 F7800.000
G1 F1200
G1 X92.582 Y98.722 E35.40560
G1 X89.335 Y100.595 F7800.000
G1 F1200
G1 X89.716 Y100.213 E35.42100
G1 X90.429 Y100.213 E35.44132
G1 X89.335 Y101.308 E35.48548
G1 X89.335 Y102.021 E35.50580
G1 X91.142 Y100.213 E35.57870
G1 X91.855 Y100.213 E35.59903
G1 X89.335 Y102.734 E35.70067
G1 X89.335 Y103.446 E35.72100
G1 X92.567 Y100.213 E35.85139
G1 X93.280 Y100.213 E35.87171
G1 X89.335 Y104.159 E36.03085
G1 X89.335 Y104.872 E36.05118
G1 X93.993 Y100.213 E36.23906
G1 X94.706 Y100.213 E36.25939
G1 X89.335 Y105.584 E36.47601
G1 X89.335 Y106.180 E36.49301
G1 X89.451 Y106.180 E36.49634
G1 X95.031 Y100.600 E36.72140
G1 X95.031 Y100.952 E36.73144
G1 X95.277 Y100.949 E36.73844
G1 X95.277 Y101.068 E36.74182
G1 X90.164 Y106.180 E36.94802
G1 X90.877 Y106.180 E36.96834
G1 X95.276 Y101.781 E37.14579
G1 X95.276 Y102.494 E37.16612
G1 X91.589 Y106.180 E37.31480
G1 X92.302 Y106.180 E37.33513
G1 X95.276 Y103.207 E37.45505
G1 X95.275 Y103.920 E37.47539
G1 X93.015 Y106.180 E37.56655
G1 X93.728 Y106.180 E37.58688
G1 X95.394 Y104.514 E37.65410
G1 X96.107 Y104.514 E37.67442
G1 X94.440 Y106.180 E37.74162
G1 X95.153 Y106.180 E37.76195
G1 X96.248 Y105.086 E37.80610
G1 X96.248 Y105.798 E37.82643
G1 X95.866 Y106.180 E37.84183
G1 Z3.150 F7800.000
G1 X95.576 Y104.210 F7800.000
G1 F900
G1 X96.548 Y104.210 E37.86883
G1 X96.548 Y106.480 E37.93189
G1 X89.035 Y106.480 E38.14059
G1 X89.035 Y98.967 E38.34929
G1 X89.684 Y98.967 E38.36735
G1 X89.685 Y99.914 E38.39364
G1 X95.490 Y99.914 E38.55490
G1 X95.491 Y98.967 E38.58119
G1 X96.548 Y98.967 E38.61056
G1 X96.548 Y100.883 E38.66377
G1 X95.577 Y100.883 E38.69073
G1 X95.576 Y104.135 E38.78107
G1 X96.067 Y103.719 F7800.000
G1 F900
G1 X97.039 Y103.719 E38.80806
G1 X97.039 Y106.971 E38.89839
