; generated by Slic3r 1.2.9 on 2019-12-05 at 19:04:44

; external perimeters extrusion width = 0.50mm
; perimeters extrusion width = 0.85mm
; infill extrusion width = 1.02mm
; solid infill extrusion width = 0.85mm
; top infill extrusion width = 0.85mm

M107
M190 S25 ; set bed temperature
M104 S210 ; set temperature
G28 ; home all axes
G1 Z5 F5000 ; lift nozzle

M109 S210 ; wait for temperature to be reached
G21 ; set units to millimeters
G90 ; use absolute coordinates
M82 ; use absolute distances for extrusion
G92 E0
G1 Z0.500 F7800.000
G1 E-2.00000 F2400.00000
G92 E0
G1 X84.882 Y84.602 F7800.000
G1 E2.00000 F2400.00000
G1 X85.388 Y84.121 E2.13730 F1800.000
G1 X86.517 Y83.152 E2.42997
G1 X87.069 Y82.724 E2.56728
G1 X88.291 Y81.874 E2.85995
G1 X88.883 Y81.505 E2.99725
G1 X90.185 Y80.783 E3.28993
G1 X90.811 Y80.475 E3.42723
G1 X92.179 Y79.888 E3.71991
G1 X92.834 Y79.646 E3.85720
G1 X94.254 Y79.200 E4.14987
G1 X94.930 Y79.025 E4.28717
G1 X96.388 Y78.725 E4.57985
G1 X97.078 Y78.620 E4.71715
G1 X98.559 Y78.469 E5.00984
G1 X99.256 Y78.434 E5.14712
G1 X100.744 Y78.434 E5.43979
G1 X101.441 Y78.469 E5.57709
G1 X102.922 Y78.620 E5.86977 F1800.000
G1 X103.612 Y78.726 E6.00707
G1 X105.070 Y79.025 E6.29974
G1 X105.746 Y79.200 E6.43704
G1 X107.166 Y79.646 E6.72972
G1 X107.956 Y79.946 E6.89590
G1 X109.189 Y80.475 E7.15966
G1 X109.815 Y80.783 E7.29696
G1 X111.117 Y81.505 E7.58963
G1 X111.709 Y81.874 E7.72693
G1 X112.931 Y82.724 E8.01961
G1 X113.483 Y83.152 E8.15691
G1 X114.612 Y84.121 E8.44958
G1 X115.118 Y84.602 E8.58688
G1 X116.144 Y85.681 E8.87955
G1 X116.598 Y86.211 E9.01685
G1 X117.509 Y87.388 E9.30953
G1 X117.908 Y87.961 E9.44683
G1 X118.696 Y89.224 E9.73950
G1 X119.034 Y89.834 E9.87680
G1 X119.690 Y91.170 E10.16947
G1 X119.965 Y91.812 E10.30678
G1 X120.482 Y93.208 E10.59945
G1 X120.691 Y93.874 E10.73675
G1 X121.064 Y95.315 E11.02942
G1 X121.205 Y95.999 E11.16673
G1 X121.430 Y97.470 E11.45940
G1 X121.501 Y98.164 E11.59670
G1 X121.576 Y99.651 E11.88937
G1 X121.576 Y100.349 E12.02667
G1 X121.501 Y101.836 E12.31934
G1 X121.430 Y102.530 E12.45665
G1 X121.205 Y104.001 E12.74932
G1 X121.064 Y104.685 E12.88662
G1 X120.691 Y106.126 E13.17929
G1 X120.482 Y106.792 E13.31659
G1 X119.965 Y108.188 E13.60926
G1 X119.690 Y108.829 E13.74654
G1 X119.034 Y110.166 E14.03924
G1 X118.696 Y110.776 E14.17654
G1 X117.908 Y112.039 E14.46921
G1 X117.509 Y112.612 E14.60652
G1 X116.598 Y113.789 E14.89919
G1 X116.144 Y114.319 E15.03649
G1 X115.118 Y115.398 E15.32916
G1 X114.612 Y115.879 E15.46646
G1 X113.483 Y116.848 E15.75913
G1 X112.931 Y117.276 E15.89644
G1 X111.709 Y118.126 E16.18911
G1 X111.117 Y118.495 E16.32641
G1 X109.815 Y119.217 E16.61908
G1 X109.189 Y119.525 E16.75638
G1 X107.821 Y120.112 E17.04905
G1 X107.166 Y120.354 E17.18636
G1 X105.746 Y120.800 E17.47903
G1 X105.070 Y120.975 E17.61633
G1 X103.612 Y121.274 E17.90900
G1 X102.922 Y121.380 E18.04631
G1 X101.441 Y121.531 E18.33898
G1 X100.744 Y121.566 E18.47628
G1 X99.256 Y121.566 E18.76895
G1 X98.559 Y121.531 E18.90625
G1 X97.078 Y121.380 E19.19893
G1 X96.388 Y121.274 E19.33623
G1 X94.930 Y120.975 E19.62891
G1 X94.254 Y120.800 E19.76620
G1 X92.834 Y120.354 E20.05887
G1 X92.179 Y120.112 E20.19618
G1 X90.811 Y119.525 E20.48885
G1 X90.065 Y119.151 E20.65298
G1 X88.883 Y118.495 E20.91879
G1 X88.291 Y118.126 E21.05607
G1 X87.069 Y117.276 E21.34877
G1 X86.517 Y116.848 E21.48607
G1 X85.388 Y115.879 E21.77874
G1 X84.882 Y115.398 E21.91604
G1 X83.856 Y114.319 E22.20871
G1 X83.402 Y113.789 E22.34601
G1 X82.494 Y112.617 E22.63757
G1 X82.092 Y112.039 E22.77599
G1 X81.304 Y110.776 E23.06866
G1 X80.966 Y110.166 E23.20595
G1 X80.310 Y108.830 E23.49863
G1 X80.035 Y108.188 E23.63593
G1 X79.518 Y106.792 E23.92864
G1 X79.309 Y106.126 E24.06591
G1 X78.936 Y104.685 E24.35858
G1 X78.795 Y104.001 E24.49588
G1 X78.570 Y102.530 E24.78856
G1 X78.499 Y101.836 E24.92586
G1 X78.424 Y100.349 E25.21854
G1 X78.424 Y99.651 E25.35582
G1 X78.499 Y98.164 E25.64851
G1 X78.570 Y97.470 E25.78581
G1 X78.795 Y95.999 E26.07848
G1 X78.936 Y95.315 E26.21578
G1 X79.272 Y94.018 E26.47918
G1 X79.518 Y93.208 E26.64566
G1 X80.035 Y91.812 E26.93840
G1 X80.310 Y91.170 E27.07570
G1 X80.966 Y89.834 E27.36837
G1 X81.304 Y89.224 E27.50567
G1 X82.092 Y87.961 E27.79835
G1 X82.490 Y87.388 E27.93558
G1 X83.402 Y86.211 E28.22832
G1 X83.856 Y85.681 E28.36562
G1 X84.830 Y84.657 E28.64354
G1 E26.64354 F2400.00000
G92 E0
G1 X88.907 Y88.429 F7800.000
G1 E2.00000 F2400.00000
G1 X90.160 Y87.344 E2.32599 F1800.000
G1 X91.491 Y86.413 E2.64534
G1 X92.910 Y85.622 E2.96471
G1 X94.400 Y84.978 E3.28403
G1 X95.949 Y84.489 E3.60337
G1 X97.539 Y84.159 E3.92272
G1 X99.154 Y83.991 E4.24207
G1 X100.846 Y83.991 E4.57474
G1 X102.394 Y84.148 E4.88075 F1800.000
G1 X103.985 Y84.472 E5.20010
G1 X105.536 Y84.955 E5.51945
G1 X107.029 Y85.592 E5.83865
G1 X108.509 Y86.413 E6.17147
G1 X109.786 Y87.302 E6.47748
G1 X111.020 Y88.357 E6.79683
G1 X112.186 Y89.583 E7.12950
G1 X113.177 Y90.870 E7.44885
G1 X114.000 Y92.190 E7.75486
G1 X114.746 Y93.709 E8.08754
G1 X115.306 Y95.233 E8.40688
G1 X115.710 Y96.806 E8.72623
G1 X115.946 Y98.344 E9.03225
G1 X116.031 Y99.966 E9.35159
G1 X115.953 Y101.588 E9.67094
G1 X115.710 Y103.194 E9.99028
G1 X115.286 Y104.832 E10.32296
G1 X114.719 Y106.353 E10.64230
G1 X114.000 Y107.810 E10.96165
G1 X113.177 Y109.130 E11.26766
G1 X112.186 Y110.417 E11.58701
G1 X111.070 Y111.596 E11.90635
G1 X109.840 Y112.656 E12.22568
G1 X108.451 Y113.623 E12.55837
G1 X107.030 Y114.408 E12.87772
G1 X105.600 Y115.022 E13.18374
G1 X103.985 Y115.528 E13.51641
G1 X102.394 Y115.852 E13.83576
G1 X100.778 Y116.013 E14.15510
G1 X99.222 Y116.013 E14.46112
G1 X97.606 Y115.852 E14.78047
G1 X96.015 Y115.528 E15.09981
G1 X94.638 Y115.100 E15.38321
G1 X94.400 Y115.022 E15.43249
G1 X92.909 Y114.378 E15.75184
G1 X91.491 Y113.587 E16.07117
G1 X90.214 Y112.698 E16.37720
G1 X88.930 Y111.596 E16.70987
G1 X87.814 Y110.417 E17.02922
G1 X86.823 Y109.130 E17.34857
G1 X85.999 Y107.810 E17.65458
G1 X85.281 Y106.353 E17.97392
G1 X84.714 Y104.832 E18.29328
G1 X84.349 Y103.437 E18.57668
G1 X84.290 Y103.194 E18.62595
G1 X84.047 Y101.588 E18.94530
G1 X83.969 Y100.034 E19.25131
G1 X84.047 Y98.412 E19.57066
G1 X84.290 Y96.806 E19.89000
G1 X84.648 Y95.410 E20.17341
G1 X84.714 Y95.168 E20.22267
G1 X85.281 Y93.647 E20.54203
G1 X85.967 Y92.250 E20.84805
G1 X86.823 Y90.870 E21.16739
G1 X87.814 Y89.583 E21.48674
G1 X88.855 Y88.483 E21.78466
G1 X89.554 Y89.044 F7800.000
G1 X90.725 Y88.036 E22.08844 F1800.000
G1 X91.983 Y87.159 E22.39000
G1 X93.323 Y86.413 E22.69157
G1 X94.732 Y85.808 E22.99313
G1 X96.195 Y85.347 E23.29469
G1 X97.696 Y85.038 E23.59625
G1 X99.222 Y84.881 E23.89781
G1 X100.755 Y84.880 E24.19937
G1 X102.281 Y85.034 E24.50094 F1800.000
G1 X103.784 Y85.342 E24.80250
G1 X105.268 Y85.808 E25.10851
G1 X106.677 Y86.413 E25.41005
G1 X107.998 Y87.147 E25.70719
G1 X109.296 Y88.054 E26.01857
G1 X110.438 Y89.035 E26.31473
G1 X111.494 Y90.148 E26.61629
G1 X112.419 Y91.342 E26.91341
G1 X113.231 Y92.643 E27.21497
G1 X113.916 Y94.040 E27.52098
G1 X114.448 Y95.479 E27.82254
G1 X114.831 Y96.964 E28.12410
G1 X115.060 Y98.457 E28.42122
G1 X115.139 Y99.989 E28.72279
G1 X115.060 Y101.543 E29.02879
G1 X114.831 Y103.036 E29.32591
G1 X114.448 Y104.521 E29.62747
G1 X113.916 Y105.960 E29.92903
G1 X113.242 Y107.337 E30.23060
G1 X112.419 Y108.658 E30.53660
G1 X111.479 Y109.869 E30.83817
G1 X110.422 Y110.980 E31.13973
G1 X109.258 Y111.978 E31.44129
G1 X107.998 Y112.853 E31.74285
G1 X106.677 Y113.587 E32.03997
G1 X105.268 Y114.192 E32.34154
G1 X103.805 Y114.653 E32.64310
G1 X102.304 Y114.962 E32.94466
G1 X100.755 Y115.120 E33.25067
G1 X99.245 Y115.120 E33.54779
G1 X97.719 Y114.966 E33.84935
G1 X96.216 Y114.658 E34.15091
G1 X94.906 Y114.248 E34.42098
G1 X94.732 Y114.192 E34.45692
G1 X93.323 Y113.587 E34.75848
G1 X91.983 Y112.841 E35.06004
G1 X90.742 Y111.978 E35.35716
G1 X89.562 Y110.965 E35.66317
G1 X88.506 Y109.852 E35.96473
G1 X87.568 Y108.639 E36.26629
G1 X86.758 Y107.337 E36.56785
G1 X86.093 Y105.980 E36.86497
G1 X85.559 Y104.543 E37.16654
G1 X85.214 Y103.213 E37.43661
G1 X85.169 Y103.036 E37.47254
G1 X84.938 Y101.520 E37.77411
G1 X84.861 Y100.011 E38.07123
G1 X84.938 Y98.480 E38.37279
G1 X85.173 Y96.942 E38.67879
G1 X85.559 Y95.457 E38.98035
G1 X86.093 Y94.020 E39.28192
G1 X86.758 Y92.663 E39.57904
G1 X87.568 Y91.361 E39.88060
G1 X88.506 Y90.148 E40.18216
G1 X89.502 Y89.098 E40.46675
G1 E38.46675 F2400.00000
G92 E0
G1 X109.778 Y110.286 F7800.000
G1 E2.00000 F2400.00000
G1 X108.687 Y111.222 E2.28270 F1800.000
G1 X107.507 Y112.044 E2.56540
G1 X106.250 Y112.741 E2.84809
G1 X104.929 Y113.308 E3.13079
G1 X103.557 Y113.739 E3.41349
G1 X102.149 Y114.028 E3.69619
G1 X100.719 Y114.173 E3.97889
G1 X99.281 Y114.173 E4.26159
G1 X97.851 Y114.028 E4.54429
G1 X96.443 Y113.739 E4.82698
G1 X95.071 Y113.308 E5.10968
G1 X93.750 Y112.741 E5.39238
G1 X92.493 Y112.044 E5.67508
G1 X91.313 Y111.222 E5.95778
G1 X90.222 Y110.286 E6.24048
G1 X89.232 Y109.244 E6.52317
G1 X88.352 Y108.107 E6.80587
G1 X87.592 Y106.887 E7.08857
G1 X86.958 Y105.597 E7.37127
G1 X86.459 Y104.248 E7.65397
G1 X86.099 Y102.857 E7.93667
G1 X85.881 Y101.436 E8.21936
G1 X85.808 Y100.000 E8.50206
G1 X85.881 Y98.564 E8.78476
G1 X86.099 Y97.143 E9.06746
G1 X86.459 Y95.752 E9.35016
G1 X86.958 Y94.403 E9.63286
G1 X87.592 Y93.113 E9.91555
G1 X88.352 Y91.893 E10.19825
G1 X89.232 Y90.756 E10.48095
G1 X90.222 Y89.714 E10.76365
G1 X91.313 Y88.778 E11.04635
G1 X92.493 Y87.956 E11.32905
G1 X93.750 Y87.259 E11.61174
G1 X95.071 Y86.692 E11.89444
G1 X96.443 Y86.261 E12.17714
G1 X97.851 Y85.972 E12.45984
G1 X99.281 Y85.827 E12.74254
G1 X100.719 Y85.827 E13.02524
G1 X102.026 Y85.959 E13.28365
G1 X103.557 Y86.261 E13.59052 F1800.000
G1 X104.929 Y86.692 E13.87322
G1 X106.250 Y87.259 E14.15592
G1 X107.507 Y87.956 E14.43861
G1 X108.687 Y88.778 E14.72131
G1 X109.778 Y89.714 E15.00401
G1 X110.768 Y90.756 E15.28671
G1 X111.648 Y91.893 E15.56941
G1 X112.408 Y93.113 E15.85211
G1 X113.042 Y94.403 E16.13480
G1 X113.541 Y95.752 E16.41750
G1 X113.901 Y97.143 E16.70020
G1 X114.119 Y98.564 E16.98290
G1 X114.192 Y100.000 E17.26560
G1 X114.119 Y101.436 E17.54830
G1 X113.901 Y102.857 E17.83099
G1 X113.541 Y104.248 E18.11369
G1 X113.042 Y105.597 E18.39639
G1 X112.408 Y106.887 E18.67909
G1 X111.648 Y108.107 E18.96179
G1 X110.768 Y109.244 E19.24449
G1 X109.829 Y110.232 E19.51244
G1 X109.301 Y110.136 F7800.000
G1 X109.162 Y109.638 F7800.000
G1 X108.140 Y110.516 E19.77733 F1800.000
G1 X107.034 Y111.285 E20.04222
G1 X105.856 Y111.939 E20.30712
G1 X104.618 Y112.470 E20.57201
G1 X103.333 Y112.873 E20.83690
G1 X102.014 Y113.144 E21.10179
G1 X100.674 Y113.281 E21.36669
G1 X99.326 Y113.281 E21.63158
G1 X97.986 Y113.144 E21.89647
G1 X96.667 Y112.873 E22.16137
G1 X95.382 Y112.470 E22.42626
G1 X94.144 Y111.939 E22.69115
G1 X92.966 Y111.285 E22.95604
G1 X91.860 Y110.516 E23.22094
G1 X90.838 Y109.638 E23.48583
G1 X89.910 Y108.662 E23.75072
G1 X89.086 Y107.597 E24.01562
G1 X88.373 Y106.453 E24.28051
G1 X87.780 Y105.244 E24.54540
G1 X87.312 Y103.981 E24.81030
G1 X86.974 Y102.677 E25.07519
G1 X86.770 Y101.345 E25.34008
G1 X86.702 Y100.000 E25.60497
G1 X86.770 Y98.655 E25.86987
G1 X86.974 Y97.323 E26.13476
G1 X87.312 Y96.019 E26.39965
G1 X87.780 Y94.756 E26.66455
G1 X88.373 Y93.547 E26.92944
G1 X89.086 Y92.403 E27.19433
G1 X89.910 Y91.338 E27.45923
G1 X90.838 Y90.362 E27.72412
G1 X91.860 Y89.484 E27.98901
G1 X92.966 Y88.715 E28.25390
G1 X94.144 Y88.061 E28.51880
G1 X95.382 Y87.530 E28.78369
G1 X96.667 Y87.127 E29.04858
G1 X97.986 Y86.856 E29.31348
G1 X99.326 Y86.719 E29.57837
G1 X100.674 Y86.719 E29.84326
G1 X101.936 Y86.848 E30.09278
G1 X103.333 Y87.127 E30.37297 F1800.000
G1 X104.618 Y87.530 E30.63787
G1 X105.856 Y88.061 E30.90276
G1 X107.034 Y88.715 E31.16765
G1 X108.140 Y89.484 E31.43254
G1 X109.162 Y90.362 E31.69744
G1 X110.090 Y91.338 E31.96233
G1 X110.914 Y92.403 E32.22722
G1 X111.627 Y93.547 E32.49212
G1 X112.220 Y94.756 E32.75701
G1 X112.688 Y96.019 E33.02190
G1 X113.026 Y97.323 E33.28680
G1 X113.230 Y98.655 E33.55169
G1 X113.298 Y100.000 E33.81658
G1 X113.230 Y101.345 E34.08147
G1 X113.026 Y102.677 E34.34637
G1 X112.688 Y103.981 E34.61126
G1 X112.220 Y105.244 E34.87615
G1 X111.627 Y106.453 E35.14105
G1 X110.914 Y107.597 E35.40594
G1 X110.090 Y108.662 E35.67083
G1 X109.213 Y109.584 E35.92098
G1 X108.546 Y108.990 F7800.000
G1 X107.593 Y109.809 E36.16806 F1800.000
G1 X106.561 Y110.527 E36.41515
G1 X105.463 Y111.136 E36.66224
G1 X104.308 Y111.632 E36.90933
G1 X103.109 Y112.008 E37.15641
G1 X101.878 Y112.261 E37.40350
G1 X100.628 Y112.388 E37.65059
G1 X99.372 Y112.388 E37.89768
G1 X98.122 Y112.261 E38.14476
G1 X96.891 Y112.008 E38.39185
G1 X95.692 Y111.632 E38.63894
G1 X94.537 Y111.136 E38.88603
G1 X93.439 Y110.527 E39.13311
G1 X92.407 Y109.809 E39.38020
G1 X91.454 Y108.990 E39.62729
G1 X90.588 Y108.080 E39.87438
G1 X89.819 Y107.086 E40.12146
G1 X89.155 Y106.020 E40.36855
G1 X88.601 Y104.892 E40.61564
G1 X88.165 Y103.713 E40.86273
G1 X87.850 Y102.497 E41.10981
G1 X87.660 Y101.255 E41.35690
G1 X87.596 Y100.000 E41.60399
G1 X87.660 Y98.745 E41.85108
G1 X87.850 Y97.503 E42.09816
G1 X88.165 Y96.287 E42.34525
G1 X88.601 Y95.108 E42.59234
G1 X89.155 Y93.980 E42.83943
G1 X89.819 Y92.914 E43.08651
G1 X90.588 Y91.920 E43.33360
G1 X91.454 Y91.010 E43.58069
G1 X92.407 Y90.191 E43.82778
G1 X93.439 Y89.473 E44.07486
G1 X94.537 Y88.864 E44.32195
G1 X95.692 Y88.368 E44.56904
G1 X96.891 Y87.992 E44.81613
G1 X98.122 Y87.739 E45.06321
G1 X99.372 Y87.612 E45.31030
G1 X100.628 Y87.612 E45.55739
G1 X101.846 Y87.736 E45.79800
G1 X103.109 Y87.992 E46.05153 F1800.000
G1 X104.308 Y88.368 E46.29862
G1 X105.463 Y88.864 E46.54571
G1 X106.561 Y89.473 E46.79279
G1 X107.593 Y90.191 E47.03988
G1 X108.546 Y91.010 E47.28697
G1 X109.412 Y91.920 E47.53406
G1 X110.181 Y92.914 E47.78114
G1 X110.845 Y93.980 E48.02823
G1 X111.399 Y95.108 E48.27532
G1 X111.835 Y96.287 E48.52241
G1 X112.150 Y97.503 E48.76950
G1 X112.340 Y98.745 E49.01658
G1 X112.404 Y100.000 E49.26367
G1 X112.340 Y101.255 E49.51076
G1 X112.150 Y102.497 E49.75784
G1 X111.835 Y103.713 E50.00493
G1 X111.399 Y104.892 E50.25202
G1 X110.845 Y106.020 E50.49911
G1 X110.181 Y107.086 E50.74619
G1 X109.412 Y108.080 E50.99328
G1 X108.598 Y108.936 E51.22562
G1 X95.776 Y110.972 F7800.000
G1 X89.019 Y104.215 E53.11051 F1800.000
G1 X88.440 Y102.369 E53.49216
G1 X97.626 Y111.555 E56.05462
G1 X99.128 Y111.791 E56.35446
G1 X88.200 Y100.863 E59.40277
G1 X88.159 Y99.556 E59.66066
G1 X100.442 Y111.839 E63.08685
G1 X101.622 Y111.753 E63.32035
G1 X88.245 Y98.376 E67.05191
G1 X88.429 Y97.293 E67.26850
G1 X102.702 Y111.566 E71.24983
G1 X103.699 Y111.297 E71.45364
G1 X88.692 Y96.290 E75.63995
G1 X89.034 Y95.366 E75.83432
G1 X104.629 Y110.961 E80.18451
G1 X105.500 Y110.565 E80.37315
G1 X89.438 Y94.504 E84.85348
G1 X89.896 Y93.695 E85.03679
G1 X106.314 Y110.113 E89.61672
G1 X107.065 Y109.597 E89.79634
G1 X90.402 Y92.934 E94.44444
G1 X90.954 Y92.221 E94.62248
G1 X107.769 Y109.035 E99.31297
G1 X108.420 Y108.420 E99.48967
G1 X91.580 Y91.580 E104.18742
G1 X92.231 Y90.965 E104.36411
G1 X109.046 Y107.779 E109.05461
G1 X109.598 Y107.066 E109.23265
G1 X92.935 Y90.403 E113.88075
G1 X93.686 Y89.887 E114.06037
G1 X110.104 Y106.305 E118.64030
G1 X110.562 Y105.496 E118.82360
G1 X94.500 Y89.435 E123.30393
G1 X95.371 Y89.039 E123.49258
G1 X110.966 Y104.634 E127.84277
G1 X111.308 Y103.710 E128.03714
G1 X96.301 Y88.703 E132.22345
G1 X97.298 Y88.434 E132.42726
G1 X111.571 Y102.707 E136.40859
G1 X111.755 Y101.624 E136.62518
G1 X98.378 Y88.247 E140.35674
G1 X99.558 Y88.161 E140.59024
G1 X111.841 Y100.444 E144.01643
G1 X111.800 Y99.137 E144.27432
G1 X100.872 Y88.209 E147.32263
G1 X102.376 Y88.446 E147.62278
G1 X111.560 Y97.631 E150.18486
G1 X110.981 Y95.785 E150.56651
G1 X104.224 Y89.028 E152.45140
G1 X107.647 Y91.185 F7800.000
G1 X108.770 Y92.308 E152.76473 F1800.000
G1 X92.353 Y108.815 F7800.000
G1 X91.230 Y107.692 E153.07803 F1800.000
G1 Z0.700 F7800.000
G1 X108.978 Y109.401 F7800.000
G1 X107.958 Y110.281 E153.17383 F3600.000
G1 X106.877 Y111.033 E153.26749
G1 X105.726 Y111.672 E153.36114
G1 X104.515 Y112.192 E153.45480
