; generated by Slic3r 1.2.9 on 2019-12-05 at 19:07:04

; external perimeters extrusion width = 0.50mm
; perimeters extrusion width = 0.85mm
; infill extrusion width = 1.02mm
; solid infill extrusion width = 0.85mm
; top infill extrusion width = 0.85mm

M107
M190 S25 ; set bed temperature
M104 S185 ; set temperature
G28 ; home all axes
G1 Z5 F5000 ; lift nozzle

M109 S185 ; wait for temperature to be reached
G21 ; set units to millimeters
G90 ; use absolute coordinates
M82 ; use absolute distances for extrusion
G92 E0
G1 Z0.500 F7800.000
G1 E-2.00000 F2400.00000
G92 E0
G1 X72.661 Y71.606 F7800.000
G1 E2.00000 F2400.00000
G1 X74.423 Y70.066 E2.46009 F1800.000
G1 X76.599 Y69.205 E2.92019
G1 X78.011 Y69.059 E3.19947
G1 X121.989 Y69.059 E11.84742
G1 X124.294 Y69.456 E12.30752
G1 X126.334 Y70.601 E12.76761 F1800.000
G1 X127.874 Y72.363 E13.22771
G1 X128.735 Y74.539 E13.68780
G1 X128.881 Y75.951 E13.96708
G1 X128.881 Y124.049 E23.42526
G1 X128.484 Y126.354 E23.88535
G1 X127.339 Y128.394 E24.34544
G1 X125.577 Y129.934 E24.80554
G1 X123.401 Y130.795 E25.26563
G1 X121.989 Y130.941 E25.54491
G1 X78.011 Y130.941 E34.19287
G1 X75.706 Y130.544 E34.65296
G1 X73.666 Y129.399 E35.11305
G1 X72.126 Y127.637 E35.57315
G1 X71.265 Y125.461 E36.03324
G1 X71.119 Y124.049 E36.31252
G1 X71.119 Y75.951 E45.77070
G1 X71.516 Y73.646 E46.23079
G1 X72.625 Y71.671 E46.67614
G1 E44.67614 F2400.00000
G92 E0
G1 X76.672 Y75.397 F7800.000
G1 E2.00000 F2400.00000
G1 X77.457 Y74.612 E2.21814 F1800.000
G1 X122.543 Y74.612 E11.08424
G1 X123.328 Y75.397 E11.30238
G1 X123.328 Y124.603 E20.97870 F1800.000
G1 X122.543 Y125.388 E21.19684
G1 X77.457 Y125.388 E30.06294
G1 X76.672 Y124.603 E30.28108
G1 X76.672 Y75.472 E39.94265
G1 X77.565 Y75.766 F7800.000
G1 X77.827 Y75.505 E40.01537 F1800.000
G1 X122.173 Y75.505 E48.73604
G1 X122.435 Y75.766 E48.80875 F1800.000
G1 X122.435 Y124.233 E58.33964
G1 X122.173 Y124.495 E58.41236
G1 X77.827 Y124.495 E67.13303
G1 X77.565 Y124.233 E67.20574
G1 X77.565 Y75.841 E76.72188
G1 E74.72188 F2400.00000
G92 E0
G1 X121.489 Y123.549 F7800.000
G1 E2.00000 F2400.00000
G1 X78.511 Y123.549 E10.45131 F1800.000
G1 X78.511 Y76.451 E19.71284
G1 X121.489 Y76.451 E28.16415
G1 X121.489 Y123.474 E37.41093
G1 X121.056 Y123.299 F7800.000
G1 X120.596 Y122.656 F7800.000
G1 X79.404 Y122.656 E45.51115 F1800.000
G1 X79.404 Y77.344 E54.42159
G1 X120.596 Y77.344 E62.52180
G1 X120.596 Y122.581 E71.41749
G1 X119.703 Y121.763 F7800.000
G1 X80.297 Y121.763 E79.16662 F1800.000
G1 X80.297 Y78.237 E87.72596
G1 X119.703 Y78.237 E95.47508
G1 X119.703 Y121.688 E104.01968
G1 X81.265 Y121.214 F7800.000
G1 X80.846 Y120.795 E104.13666 F1800.000
G1 X80.846 Y119.527 E104.38718
G1 X82.533 Y121.214 E104.85846
G1 X83.801 Y121.214 E105.10899
G1 X80.846 Y118.259 E105.93457
G1 X80.846 Y116.990 E106.18509
G1 X85.070 Y121.214 E107.36497
G1 X86.338 Y121.214 E107.61549
G1 X80.846 Y115.722 E109.14967
G1 X80.846 Y114.454 E109.40019
G1 X87.606 Y121.214 E111.28866
G1 X88.874 Y121.214 E111.53919
G1 X80.846 Y113.186 E113.78196
G1 X80.846 Y111.918 E114.03248
G1 X90.143 Y121.214 E116.62955
G1 X91.411 Y121.214 E116.88008
G1 X80.846 Y110.649 E119.83144
G1 X80.846 Y109.381 E120.08197
G1 X92.679 Y121.214 E123.38763
G1 X93.947 Y121.214 E123.63816
G1 X80.846 Y108.113 E127.29812
G1 X80.846 Y106.845 E127.54865
G1 X95.215 Y121.214 E131.56290
G1 X96.484 Y121.214 E131.81343
G1 X80.846 Y105.576 E136.18199
G1 X80.846 Y104.308 E136.43251
G1 X97.752 Y121.214 E141.15537
G1 X99.020 Y121.214 E141.40590
G1 X80.846 Y103.040 E146.48305
G1 X80.846 Y101.772 E146.73358
G1 X100.288 Y121.214 E152.16503
G1 X101.556 Y121.214 E152.41555
G1 X80.846 Y100.504 E158.20130
G1 X80.846 Y99.235 E158.45183
G1 X102.825 Y121.214 E164.59187
G1 X104.093 Y121.214 E164.84240
G1 X80.846 Y97.967 E171.33674
G1 X80.846 Y96.699 E171.58727
G1 X105.361 Y121.214 E178.43591
G1 X106.629 Y121.214 E178.68644
G1 X80.846 Y95.431 E185.88938
G1 X80.846 Y94.163 E186.13991
G1 X107.898 Y121.214 E193.69715
G1 X109.166 Y121.214 E193.94767
G1 X80.846 Y92.894 E201.85921
G1 X80.846 Y91.626 E202.10973
G1 X110.434 Y121.214 E210.37557
G1 X111.702 Y121.214 E210.62610
G1 X80.846 Y90.358 E219.24623
G1 X80.846 Y89.090 E219.49676
G1 X112.970 Y121.214 E228.47119
G1 X114.239 Y121.214 E228.72171
G1 X80.846 Y87.821 E238.05044
G1 X80.846 Y86.553 E238.30097
G1 X115.507 Y121.214 E247.98399
G1 X116.775 Y121.214 E248.23452
G1 X80.846 Y85.285 E258.27185
G1 X80.846 Y84.017 E258.52237
G1 X118.043 Y121.214 E268.91399
G1 X119.154 Y121.056 E269.13556
G1 X80.846 Y82.749 E279.83741
G1 X80.846 Y81.480 E280.08793
G1 X119.154 Y119.788 E290.78978
G1 X119.154 Y118.520 E291.04031
G1 X80.846 Y80.212 E301.74216
G1 X80.846 Y78.944 E301.99268
G1 X119.154 Y117.251 E312.69453
G1 X119.154 Y115.983 E312.94506
G1 X81.957 Y78.786 E323.33668
G1 X83.225 Y78.786 E323.58721
G1 X119.154 Y114.715 E333.62454
G1 X119.154 Y113.447 E333.87506
G1 X84.493 Y78.786 E343.55809
G1 X85.761 Y78.786 E343.80862
G1 X119.154 Y112.179 E353.13735
G1 X119.154 Y110.910 E353.38788
G1 X87.030 Y78.786 E362.36231
G1 X88.298 Y78.786 E362.61284
G1 X119.154 Y109.642 E371.23297
G1 X119.154 Y108.374 E371.48350
G1 X89.566 Y78.786 E379.74933
G1 X90.834 Y78.786 E379.99986
G1 X119.154 Y107.106 E387.91140
G1 X119.154 Y105.837 E388.16192
G1 X92.102 Y78.786 E395.71917
G1 X93.371 Y78.786 E395.96969
G1 X119.154 Y104.569 E403.17263
G1 X119.154 Y103.301 E403.42316
G1 X94.639 Y78.786 E410.27181
G1 X95.907 Y78.786 E410.52233
G1 X119.154 Y102.033 E417.01668
G1 X119.154 Y100.765 E417.26720
G1 X97.175 Y78.786 E423.40725
G1 X98.444 Y78.786 E423.65778
G1 X119.154 Y99.496 E429.44353
G1 X119.154 Y98.228 E429.69406
G1 X99.712 Y78.786 E435.12551
G1 X100.980 Y78.786 E435.37604
G1 X119.154 Y96.960 E440.45319
G1 X119.154 Y95.692 E440.70372
G1 X102.248 Y78.786 E445.42657
G1 X103.516 Y78.786 E445.67710
G1 X119.154 Y94.424 E450.04566
G1 X119.154 Y93.155 E450.29618
G1 X104.785 Y78.786 E454.31045
G1 X106.053 Y78.786 E454.56097
G1 X119.154 Y91.887 E458.22093
G1 X119.154 Y90.619 E458.47146
G1 X107.321 Y78.786 E461.77713
G1 X108.589 Y78.786 E462.02765
G1 X119.154 Y89.351 E464.97902
G1 X119.154 Y88.082 E465.22955
G1 X109.857 Y78.786 E467.82661
G1 X111.126 Y78.786 E468.07714
G1 X119.154 Y86.814 E470.31991
G1 X119.154 Y85.546 E470.57044
G1 X112.394 Y78.786 E472.45891
G1 X113.662 Y78.786 E472.70944
G1 X119.154 Y84.278 E474.24361
G1 X119.154 Y83.010 E474.49414
G1 X114.930 Y78.786 E475.67401
G1 X116.199 Y78.786 E475.92454
G1 X119.154 Y81.741 E476.75012
G1 X119.154 Y80.473 E477.00065
G1 X117.467 Y78.786 E477.47193
G1 X118.735 Y78.786 E477.72245
G1 X119.154 Y79.205 E477.83943
G1 Z0.700 F7800.000
G1 X120.299 Y122.359 F7800.000
G1 X79.701 Y122.359 E480.72660 F3600.000
G1 X79.701 Y77.641 E483.90676
G1 X120.299 Y77.641 E486.79393
G1 X120.299 Y122.284 E489.96876
G1 X121.106 Y123.167 F7800.000
G1 X78.894 Y123.167 E492.97071 F3600.000
G1 X78.894 Y76.833 E496.26567
G1 X121.106 Y76.833 E499.26762
G1 X121.106 Y123.092 E502.55725
G1 X121.739 Y123.799 F7800.000
G1 X78.261 Y123.799 E504.30828 F1800.000
G1 X78.261 Y76.201 E506.22525
G1 X121.739 Y76.201 E507.97628
G1 X121.739 Y123.724 E509.89024
G1 X121.306 Y123.549 F7800.000
G1 X119.422 Y121.865 F7800.000
G1 X119.805 Y121.482 E509.92888 F1200.000
G1 X119.805 Y120.335 E510.01083
G1 X118.275 Y121.865 E510.16537
G1 X117.128 Y121.865 E510.24732
G1 X119.805 Y119.189 E510.51775
G1 X119.805 Y118.042 E510.59970
G1 X115.982 Y121.865 E510.98603
G1 X114.835 Y121.865 E511.06798
G1 X119.805 Y116.895 E511.57020
G1 X119.805 Y115.748 E511.65215
G1 X113.688 Y121.865 E512.27026
G1 X112.541 Y121.865 E512.35221
G1 X119.805 Y114.601 E513.08622
G1 X119.805 Y113.454 E513.16817
G1 X111.394 Y121.865 E514.01807
G1 X110.247 Y121.865 E514.10002
G1 X119.805 Y112.307 E515.06582
G1 X119.805 Y111.161 E515.14777
G1 X109.100 Y121.865 E516.22946
G1 X107.954 Y121.865 E516.31141
G1 X119.805 Y110.014 E517.50899
G1 X119.805 Y108.867 E517.59094
G1 X106.807 Y121.865 E518.90442
G1 X105.660 Y121.865 E518.98637
G1 X119.805 Y107.720 E520.41574
G1 X119.805 Y106.573 E520.49769
G1 X104.513 Y121.865 E522.04296
G1 X103.366 Y121.865 E522.12491
G1 X119.805 Y105.426 E523.78607
G1 X119.805 Y104.279 E523.86802
G1 X102.219 Y121.865 E525.64507
G1 X101.072 Y121.865 E525.72702
G1 X119.805 Y103.133 E527.61997
G1 X119.805 Y101.986 E527.70192
G1 X99.926 Y121.865 E529.71077
G1 X98.779 Y121.865 E529.79271
G1 X119.805 Y100.839 E531.91745
G1 X119.805 Y99.692 E531.99940
G1 X97.632 Y121.865 E534.24003
G1 X96.485 Y121.865 E534.32198
G1 X119.805 Y98.545 E536.67851
G1 X119.805 Y97.398 E536.76046
G1 X95.338 Y121.865 E539.23288
G1 X94.191 Y121.865 E539.31483
G1 X119.805 Y96.251 E541.90314
G1 X119.805 Y95.105 E541.98509
G1 X93.044 Y121.865 E544.68930
G1 X91.898 Y121.865 E544.77125
G1 X119.805 Y93.958 E547.59135
G1 X119.805 Y92.811 E547.67330
G1 X90.751 Y121.865 E550.60929
G1 X89.604 Y121.865 E550.69124
G1 X119.805 Y91.664 E553.74313
G1 X119.805 Y90.517 E553.82508
G1 X88.457 Y121.865 E556.99286
G1 X87.310 Y121.865 E557.07481
G1 X119.805 Y89.370 E560.35849
G1 X119.805 Y88.223 E560.44044
G1 X86.163 Y121.865 E563.84001
G1 X85.016 Y121.865 E563.92196
G1 X119.805 Y87.077 E567.43743
G1 X119.805 Y85.930 E567.51938
G1 X83.870 Y121.865 E571.15074
G1 X82.723 Y121.865 E571.23269
G1 X119.805 Y84.783 E574.97994
G1 X119.805 Y83.636 E575.06189
G1 X81.576 Y121.865 E578.92504
G1 X80.429 Y121.865 E579.00699
G1 X119.805 Y82.489 E582.98603
G1 X119.805 Y81.342 E583.06798
G1 X80.195 Y120.951 E587.07062
G1 X80.195 Y119.805 E587.15257
G1 X119.805 Y80.195 E591.15522
G1 X119.805 Y79.049 E591.23717
G1 X80.195 Y118.658 E595.23982
G1 X80.195 Y117.511 E595.32177
G1 X119.571 Y78.135 E599.30080
G1 X118.424 Y78.135 E599.38275
G1 X80.195 Y116.364 E603.24589
G1 X80.195 Y115.217 E603.32784
G1 X117.277 Y78.135 E607.07509
G1 X116.130 Y78.135 E607.15704
G1 X80.195 Y114.070 E610.78839
G1 X80.195 Y112.923 E610.87034
G1 X114.983 Y78.135 E614.38580
G1 X113.837 Y78.135 E614.46775
G1 X80.195 Y111.777 E617.86731
G1 X80.195 Y110.630 E617.94926
G1 X112.690 Y78.135 E621.23293
G1 X111.543 Y78.135 E621.31488
G1 X80.195 Y109.483 E624.48266
G1 X80.195 Y108.336 E624.56461
G1 X110.396 Y78.135 E627.61649
G1 X109.249 Y78.135 E627.69844
G1 X80.195 Y107.189 E630.63443
G1 X80.195 Y106.042 E630.71638
G1 X108.102 Y78.135 E633.53647
G1 X106.955 Y78.135 E633.61842
G1 X80.195 Y104.895 E636.32262
G1 X80.195 Y103.749 E636.40457
G1 X105.809 Y78.135 E638.99288
G1 X104.662 Y78.135 E639.07483
G1 X80.195 Y102.602 E641.54724
G1 X80.195 Y101.455 E641.62919
G1 X103.515 Y78.135 E643.98571
G1 X102.368 Y78.135 E644.06766
G1 X80.195 Y100.308 E646.30828
G1 X80.195 Y99.161 E646.39023
G1 X101.221 Y78.135 E648.51496
G1 X100.074 Y78.135 E648.59691
G1 X80.195 Y98.014 E650.60575
G1 X80.195 Y96.867 E650.68770
G1 X98.927 Y78.135 E652.58064
G1 X97.781 Y78.135 E652.66259
G1 X80.195 Y95.721 E654.43964
G1 X80.195 Y94.574 E654.52159
G1 X96.634 Y78.135 E656.18274
G1 X95.487 Y78.135 E656.26469
G1 X80.195 Y93.427 E657.80995
G1 X80.195 Y92.280 E657.89190
G1 X94.340 Y78.135 E659.32127
G1 X93.193 Y78.135 E659.40322
G1 X80.195 Y91.133 E660.71669
G1 X80.195 Y89.986 E660.79864
G1 X92.046 Y78.135 E661.99621
G1 X90.899 Y78.135 E662.07816
G1 X80.195 Y88.839 E663.15985
G1 X80.195 Y87.693 E663.24180
G1 X89.753 Y78.135 E664.20759
G1 X88.606 Y78.135 E664.28954
G1 X80.195 Y86.546 E665.13943
G1 X80.195 Y85.399 E665.22138
G1 X87.459 Y78.135 E665.95538
G1 X86.312 Y78.135 E666.03733
G1 X80.195 Y84.252 E666.65544
G1 X80.195 Y83.105 E666.73739
G1 X85.165 Y78.135 E667.23960
G1 X84.018 Y78.135 E667.32155
G1 X80.195 Y81.958 E667.70787
G1 X80.195 Y80.811 E667.78982
G1 X82.871 Y78.135 E668.06025
G1 X81.725 Y78.135 E668.14220
G1 X80.195 Y79.665 E668.29673
G1 X80.195 Y78.518 E668.37868
G1 X80.578 Y78.135 E668.41731
G1 Z0.900 F7800.000
G1 X120.299 Y122.359 F7800.000
G1 X79.701 Y122.359 E671.30448 F3600.000
G1 X79.701 Y77.641 E674.48464
G1 X120.299 Y77.641 E677.37181
G1 X120.299 Y122.284 E680.54664
G1 X121.106 Y123.167 F7800.000
G1 X78.894 Y123.167 E683.54859 F3600.000
G1 X78.894 Y76.833 E686.84355
G1 X121.106 Y76.833 E689.84550
G1 X121.106 Y123.092 E693.13513
G1 X121.739 Y123.799 F7800.000
G1 X78.261 Y123.799 E694.88616 F1800.000
G1 X78.261 Y76.201 E696.80313
G1 X121.739 Y76.201 E698.55416
G1 X121.739 Y123.724 E700.46812
G1 X121.306 Y123.549 F7800.000
G1 X80.195 Y121.482 F7800.000
G1 X80.578 Y121.865 E700.50675 F1200.000
G1 X81.725 Y121.865 E700.58870
G1 X80.195 Y120.335 E700.74323
G1 X80.195 Y119.189 E700.82518
G1 X82.871 Y121.865 E701.09561
G1 X84.018 Y121.865 E701.17756
G1 X80.195 Y118.042 E701.56388
G1 X80.195 Y116.895 E701.64583
G1 X85.165 Y121.865 E702.14804
G1 X86.312 Y121.865 E702.22999
G1 X80.195 Y115.748 E702.84810
G1 X80.195 Y114.601 E702.93005
G1 X87.459 Y121.865 E703.66405
G1 X88.606 Y121.865 E703.74600
G1 X80.195 Y113.454 E704.59590
G1 X80.195 Y112.307 E704.67784
G1 X89.753 Y121.865 E705.64363
G1 X90.899 Y121.865 E705.72558
G1 X80.195 Y111.161 E706.80727
G1 X80.195 Y110.014 E706.88922
G1 X92.046 Y121.865 E708.08679
G1 X93.193 Y121.865 E708.16874
G1 X80.195 Y108.867 E709.48222
G1 X80.195 Y107.720 E709.56417
G1 X94.340 Y121.865 E710.99353
G1 X95.487 Y121.865 E711.07548
G1 X80.195 Y106.573 E712.62074
G1 X80.195 Y105.426 E712.70269
G1 X96.634 Y121.865 E714.36384
G1 X97.781 Y121.865 E714.44579
G1 X80.195 Y104.279 E716.22284
G1 X80.195 Y103.133 E716.30479
G1 X98.927 Y121.865 E718.19773
G1 X100.074 Y121.865 E718.27968
G1 X80.195 Y101.986 E720.28852
G1 X80.195 Y100.839 E720.37047
G1 X101.221 Y121.865 E722.49520
G1 X102.368 Y121.865 E722.57715
G1 X80.195 Y99.692 E724.81777
G1 X80.195 Y98.545 E724.89972
G1 X103.515 Y121.865 E727.25624
G1 X104.662 Y121.865 E727.33819
G1 X80.195 Y97.398 E729.81060
G1 X80.195 Y96.251 E729.89255
G1 X105.809 Y121.865 E732.48086
G1 X106.955 Y121.865 E732.56281
G1 X80.195 Y95.105 E735.26701
G1 X80.195 Y93.958 E735.34896
G1 X108.102 Y121.865 E738.16905
G1 X109.249 Y121.865 E738.25100
G1 X80.195 Y92.811 E741.18699
G1 X80.195 Y91.664 E741.26894
G1 X110.396 Y121.865 E744.32082
G1 X111.543 Y121.865 E744.40277
G1 X80.195 Y90.517 E747.57055
G1 X80.195 Y89.370 E747.65250
G1 X112.690 Y121.865 E750.93617
G1 X113.837 Y121.865 E751.01812
G1 X80.195 Y88.223 E754.41768
G1 X80.195 Y87.077 E754.49963
G1 X114.983 Y121.865 E758.01509
G1 X116.130 Y121.865 E758.09704
G1 X80.195 Y85.930 E761.72839
G1 X80.195 Y84.783 E761.81034
G1 X117.277 Y121.865 E765.55759
G1 X118.424 Y121.865 E765.63954
G1 X80.195 Y83.636 E769.50268
G1 X80.195 Y82.489 E769.58463
G1 X119.571 Y121.865 E773.56366
G1 X119.805 Y120.951 E773.63102
G1 X80.195 Y81.342 E777.63366
G1 X80.195 Y80.195 E777.71561
G1 X119.805 Y119.805 E781.71826
G1 X119.805 Y118.658 E781.80021
G1 X80.195 Y79.049 E785.80286
G1 X80.429 Y78.135 E785.87022
G1 X119.805 Y117.511 E789.84926
G1 X119.805 Y116.364 E789.93121
G1 X81.576 Y78.135 E793.79436
G1 X82.723 Y78.135 E793.87631
G1 X119.805 Y115.217 E797.62356
G1 X119.805 Y114.070 E797.70551
G1 X83.870 Y78.135 E801.33687
G1 X85.016 Y78.135 E801.41882
G1 X119.805 Y112.923 E804.93428
G1 X119.805 Y111.777 E805.01623
G1 X86.163 Y78.135 E808.41581
G1 X87.310 Y78.135 E808.49775
G1 X119.805 Y110.630 E811.78143
G1 X119.805 Y109.483 E811.86338
G1 X88.457 Y78.135 E815.03117
G1 X89.604 Y78.135 E815.11311
G1 X119.805 Y108.336 E818.16500
G1 X119.805 Y107.189 E818.24695
G1 X90.751 Y78.135 E821.18295
G1 X91.898 Y78.135 E821.26490
G1 X119.805 Y106.042 E824.08500
G1 X119.805 Y104.895 E824.16695
G1 X93.044 Y78.135 E826.87116
G1 X94.191 Y78.135 E826.95311
G1 X119.805 Y103.749 E829.54142
G1 X119.805 Y102.602 E829.62337
G1 X95.338 Y78.135 E832.09579
G1 X96.485 Y78.135 E832.17774
G1 X119.805 Y101.455 E834.53426
G1 X119.805 Y100.308 E834.61621
G1 X97.632 Y78.135 E836.85684
G1 X98.779 Y78.135 E836.93879
G1 X119.805 Y99.161 E839.06353
G1 X119.805 Y98.014 E839.14548
G1 X99.926 Y78.135 E841.15432
G1 X101.072 Y78.135 E841.23627
G1 X119.805 Y96.867 E843.12922
G1 X119.805 Y95.721 E843.21117
G1 X102.219 Y78.135 E844.98823
G1 X103.366 Y78.135 E845.07018
G1 X119.805 Y94.574 E846.73134
G1 X119.805 Y93.427 E846.81329
G1 X104.513 Y78.135 E848.35855
G1 X105.660 Y78.135 E848.44050
G1 X119.805 Y92.280 E849.86988
G1 X119.805 Y91.133 E849.95183
